Sources/FrostedUI/Resources/Icons.xcassets/gif32.imageset/gif-32.svg

<svg width="32" height="32" viewBox="0 0 32 32" fill="none" xmlns="http://www.w3.org/2000/svg" data-fui-icon="true">
  <path
    d="M16.0005 1.25049C18.1644 1.25049 19.8257 1.25036 21.1587 1.34131C22.4981 1.43274 23.5619 1.61876 24.5259 2.01807C26.9963 3.04153 28.9596 5.0046 29.9829 7.4751C30.3821 8.43907 30.5683 9.50295 30.6597 10.8423C30.7506 12.1752 30.7505 13.8366 30.7505 16.0005C30.7505 18.1644 30.7506 19.8257 30.6597 21.1587C30.5682 22.4981 30.3822 23.5619 29.9829 24.5259C28.9595 26.9964 26.9964 28.9595 24.5259 29.9829C23.5619 30.3822 22.4981 30.5682 21.1587 30.6597C19.8257 30.7506 18.1644 30.7505 16.0005 30.7505C13.8366 30.7505 12.1752 30.7506 10.8423 30.6597C9.50295 30.5683 8.43907 30.3821 7.4751 29.9829C5.0046 28.9596 3.04153 26.9963 2.01807 24.5259C1.61876 23.5619 1.43274 22.4981 1.34131 21.1587C1.25036 19.8257 1.24951 18.1644 1.24951 16.0005C1.24951 13.8366 1.25039 12.1753 1.34131 10.8423C1.43272 9.5028 1.61878 8.43916 2.01807 7.4751C3.04146 5.00441 5.00441 3.04146 7.4751 2.01807C8.43916 1.61878 9.5028 1.43272 10.8423 1.34131C12.1753 1.25039 13.8366 1.25049 16.0005 1.25049ZM16.0005 2.75049C13.8161 2.75049 12.2149 2.75078 10.9448 2.8374C9.68165 2.92359 8.8002 3.09285 8.04932 3.40381C5.94616 4.27497 4.27497 5.94616 3.40381 8.04932C3.09285 8.8002 2.92359 9.68165 2.8374 10.9448C2.75078 12.2149 2.75049 13.8161 2.75049 16.0005C2.75049 18.1848 2.75075 19.7861 2.8374 21.0562C2.92361 22.3192 3.09283 23.2008 3.40381 23.9517C4.27503 26.0545 5.94635 27.7261 8.04932 28.5972C8.80013 28.908 9.68185 29.0774 10.9448 29.1636C12.2149 29.2502 13.8162 29.2505 16.0005 29.2505C18.1848 29.2505 19.7861 29.2502 21.0562 29.1636C22.3192 29.0774 23.2008 28.9081 23.9517 28.5972C26.0546 27.726 27.726 26.0546 28.5972 23.9517C28.9081 23.2008 29.0774 22.3192 29.1636 21.0562C29.2502 19.7861 29.2505 18.1848 29.2505 16.0005C29.2505 13.8162 29.2502 12.2149 29.1636 10.9448C29.0774 9.68185 28.908 8.80013 28.5972 8.04932C27.7261 5.94635 26.0545 4.27503 23.9517 3.40381C23.2008 3.09283 22.3192 2.92361 21.0562 2.8374C19.7861 2.75075 18.1848 2.75049 16.0005 2.75049ZM10.4897 11.0005C11.7725 11.0006 12.6605 11.5514 13.2153 12.104C13.4881 12.3758 13.6809 12.6478 13.8062 12.853C13.8689 12.956 13.9162 13.0454 13.9487 13.1108C13.9649 13.1433 13.9784 13.1712 13.9878 13.1919C13.9923 13.2019 13.9965 13.2113 13.9995 13.2183C14.0009 13.2215 14.0024 13.2256 14.0034 13.228L14.0054 13.231V13.2329L14.0063 13.2339C14.1638 13.6165 13.9816 14.0554 13.5991 14.2134C13.2187 14.3704 12.7831 14.191 12.6226 13.813L12.6206 13.8101C12.6184 13.8052 12.6134 13.7938 12.606 13.7788C12.5905 13.7477 12.5638 13.6966 12.5259 13.6343C12.4489 13.508 12.3272 13.3365 12.1567 13.1665C11.8233 12.8344 11.2985 12.5006 10.4897 12.5005H10.2505C9.00785 12.5005 8.00049 13.5078 8.00049 14.7505V17.2466C8.0009 18.4889 9.0081 19.4966 10.2505 19.4966H10.813C11.779 19.4963 12.5626 18.7126 12.563 17.7466V17.0757H11.2925C10.8785 17.0757 10.5429 16.7396 10.5425 16.3257C10.5425 15.9115 10.8783 15.5757 11.2925 15.5757H12.813C13.5031 15.5759 14.063 16.1355 14.063 16.8257V17.7466C14.0626 19.541 12.6074 20.9963 10.813 20.9966H10.2505C8.17967 20.9966 6.5009 19.3173 6.50049 17.2466V14.7505C6.50049 12.6794 8.17942 11.0005 10.2505 11.0005H10.4897ZM16.6001 11.0005C17.0141 11.0008 17.3501 11.3364 17.3501 11.7505V20.2466C17.3497 20.6603 17.0138 20.9963 16.6001 20.9966C16.1863 20.9964 15.8505 20.6603 15.8501 20.2466V11.7505C15.8501 11.3364 16.1861 11.0007 16.6001 11.0005ZM24.7144 11.0005C25.1283 11.0009 25.4644 11.3365 25.4644 11.7505C25.464 12.1641 25.128 12.5001 24.7144 12.5005H21.0005V15.2485H24.0288C24.4428 15.2488 24.7788 15.5845 24.7788 15.9985C24.7784 16.4122 24.4426 16.7483 24.0288 16.7485H21.0005V20.2466C21.0001 20.6603 20.6642 20.9963 20.2505 20.9966C19.8365 20.9966 19.5009 20.6604 19.5005 20.2466V12.2505C19.5005 11.5601 20.0601 11.0005 20.7505 11.0005H24.7144Z"
    fill="currentColor"
  />
</svg>

<svg xmlns="http://www.w3.org/2000/svg" width="32" height="32" fill="none" data-fui-icon="true" viewBox="0 0 32 32"><path fill="currentColor" d="M16 1.25c2.164 0 3.826 0 5.159.091 1.34.092 2.403.278 3.367.677a10.09 10.09 0 0 1 5.457 5.457c.4.964.585 2.028.677 3.367.09 1.333.09 2.995.09 5.158s0 3.826-.09 5.159c-.092 1.34-.278 2.403-.677 3.367a10.08 10.08 0 0 1-5.457 5.457c-.964.4-2.028.585-3.367.677-1.333.09-2.995.09-5.158.09s-3.826 0-5.159-.09c-1.34-.092-2.403-.278-3.367-.677a10.09 10.09 0 0 1-5.457-5.457c-.4-.964-.585-2.028-.677-3.367-.09-1.333-.091-2.995-.091-5.158s0-3.826.091-5.159c.092-1.34.278-2.403.677-3.367a10.08 10.08 0 0 1 5.457-5.457c.964-.4 2.028-.585 3.367-.677 1.333-.09 2.995-.09 5.158-.09m0 1.5c-2.184 0-3.785 0-5.055.087-1.263.087-2.145.256-2.896.567a8.58 8.58 0 0 0-4.645 4.645c-.311.751-.48 1.633-.567 2.896-.086 1.27-.087 2.871-.087 5.055 0 2.185 0 3.786.087 5.056.087 1.263.256 2.145.567 2.896a8.59 8.59 0 0 0 4.645 4.645c.751.311 1.633.48 2.896.567 1.27.086 2.871.086 5.055.086 2.185 0 3.786 0 5.056-.086 1.263-.087 2.145-.256 2.896-.567a8.59 8.59 0 0 0 4.645-4.645c.311-.751.48-1.633.567-2.896.086-1.27.086-2.871.086-5.056s0-3.785-.086-5.055c-.087-1.263-.256-2.145-.567-2.896a8.59 8.59 0 0 0-4.645-4.645c-.751-.311-1.633-.48-2.896-.567-1.27-.086-2.871-.087-5.056-.087M10.49 11c1.283 0 2.17.551 2.725 1.104a4 4 0 0 1 .734 1.007l.05.107.004.01.002.003v.002h.001a.751.751 0 0 1-1.383.58l-.002-.003-.015-.031a2.53 2.53 0 0 0-.45-.612c-.333-.333-.857-.666-1.666-.666h-.24A2.25 2.25 0 0 0 8 14.75v2.496a2.25 2.25 0 0 0 2.25 2.25h.563c.966 0 1.75-.784 1.75-1.75v-.671h-1.27a.75.75 0 0 1 0-1.5h1.52c.69 0 1.25.56 1.25 1.25v.92a3.25 3.25 0 0 1-3.25 3.25h-.562a3.75 3.75 0 0 1-3.75-3.75v-2.495A3.75 3.75 0 0 1 10.25 11zm6.11 0a.75.75 0 0 1 .75.75v8.497a.751.751 0 0 1-1.5 0V11.75a.75.75 0 0 1 .75-.75m8.114 0a.75.75 0 0 1 0 1.5h-3.713v2.749h3.028a.75.75 0 0 1 0 1.5H21v3.498a.751.751 0 0 1-1.5 0V12.25c0-.69.56-1.25 1.25-1.25z"/></svg>
